www/assets/icons/fullscreen_exit.svg

<svg xmlns="http://www.w3.org/2000/svg" width="24" height="24" viewBox="0 0 24 24" fill='currentColor'><path d="M5 16h3v3h2v-5H5zm3-8H5v2h5V5H8zm6 11h2v-3h3v-2h-5zm2-11V5h-2v5h5V8z"/></svg>

<svg width="24" height="24" viewBox="0 0 24 24" xmlns="http://www.w3.org/2000/svg" fill='currentColor'><path d="M5 16H8V19H10V14H5V16ZM8 8H5V10H10V5H8V8ZM14 19H16V16H19V14H14V19ZM16 8V5H14V10H19V8H16Z"/></svg>
